X:078
T:Tom and Jerry
B:Ryan's Mammoth Collection (facsimile 1995)
N:labelled "Scotch" in the book
M:4/4
L:1/8
K:D
A2|d2 fd efge|d2 fd efge|dfad' c'bag|fgab agfe|
d2 fd efge|d2 fd efge|dfad' c'bag|fgef d2:|
AG|FAdA FAdA|GBdB GBdB|ABcd efge|fgef dcBA|
FAdA FAdA|GBdB GBdB|ABcd efge|fgef d2:|
<end>
<start>
